!!!SOCIAL_FUNCTION:	parade songs
!!!PDT:	1922
!!!OTL: No_84_Parade_Song_(b).krn
!!!REG: Southwest
!!!LANG: Non-Tone
!!!LING_GROUP: Uto-Aztecan
**kern	**kern
*staff2	*staff1
=1-	=1-
=	=
*clefF4	*clefF4
*k[b-e-a-d-]	*k[b-e-a-d-]
*M3/4	*M3/4
4GG/	4.e-\
4GG/	.
.	8e-\
4GG/	16e-\LK
.	8.A-\J
=2||	=2||
*M2/4	*M2/4
4GG/	8B-\L
.	16c\L
.	16B-\JJ
4GG/	16c\LL
.	16B-\
.	16c\
.	16B-\JJ
=3	=3
4GG/	16c\LK
.	8.B-\J
4GG/	8B-\L
.	16c\L
.	16B-\JJ
=4	=4
2r	8.A-\L
.	16E-\Jk
.	4E-\
=5	=5
2r	16B-\LL
.	16A-\J
.	8B-\J
.	8A-\L
.	8E-\J
=6	=6
2r	8A-\L
.	16B-\L
.	16A-\JJ
.	16B-\LL
.	16A-\
.	16B-\
.	16A-\JJ
=7	=7
2r	16B-\LL
.	16A-\J
.	8A-\J
.	4A-\
=8||	=8||
*M3/4	*M3/4
2.r	4E-\
.	8E-\L
.	8E-\J
.	4E-\
=9	=9
*M2/4	*M2/4
2r	16c\LL
.	16B-\
.	16B-\
.	16A-\JJ
.	16c\LL
.	16B-\J
.	8B-\J
=10||	=10||
*M3/4	*M3/4
2.r	4.B-\
.	8B-\
.	4B-\
==:|!	==:|!
*-	*-
